symbols/web/battery_0_bar/materialsymbolsoutlined/battery_0_bar_wght100_48px.svg

<svg xmlns="http://www.w3.org/2000/svg" height="48" width="48"><path d="M17.65 40.9q-.6 0-.975-.4t-.375-.95v-28.3q0-.55.4-.95.4-.4.95-.4h3.15V7.15h6.4V9.9h3.15q.55 0 .95.4.4.4.4.95v28.3q0 .55-.4.95-.4.4-.95.4Zm-.25-1.1h13.2V10.95H17.4Z"/></svg>

<svg xmlns="http://www.w3.org/2000/svg" height="48" width="48"><path d="M17.65 40.9Q17.05 40.9 16.675 40.5Q16.3 40.1 16.3 39.55V11.25Q16.3 10.7 16.7 10.3Q17.1 9.9 17.65 9.9H20.8V7.15H27.2V9.9H30.35Q30.9 9.9 31.3 10.3Q31.7 10.7 31.7 11.25V39.55Q31.7 40.1 31.3 40.5Q30.9 40.9 30.35 40.9ZM17.4 39.8H30.6V10.95H17.4Z"/></svg>
